build/logo/WallOutline.svg

<svg xmlns="http://www.w3.org/2000/svg" fill="none" viewBox="0 0 24 24" focusable="false"><path d="M0 0H24V24H0z"/><path fill="#74767B" fill-rule="evenodd" d="M17.002 4C18.6587 4 20.002 5.34326 20.002 7L20.002 16.9888C20.002 18.6458 18.6587 19.9888 17.002 19.9888L7 19.9888C5.34326 19.9888 4 18.6458 4 16.9888L4 7C4 5.34326 5.34326 4 7 4L17.002 4ZM12.6499 5.30005L12.6499 8.69604L18.7021 8.69604L18.7021 7C18.7021 6.06104 17.9409 5.30005 17.002 5.30005L12.6499 5.30005ZM11.3501 8.69604L11.3501 5.30005L7 5.30005C6.06104 5.30005 5.2998 6.06104 5.2998 7L5.2998 8.69604L11.3501 8.69604ZM5.2998 9.99609L5.2998 14.0042L7.64258 14.0042L7.64258 9.99609L5.2998 9.99609ZM5.2998 15.3042L5.2998 16.9888C5.2998 17.9277 6.06104 18.689 7 18.689L11.3501 18.689L11.3501 15.3042L5.2998 15.3042ZM12.6499 18.689L17.002 18.689C17.9409 18.689 18.7021 17.9277 18.7021 16.9888L18.7021 15.3042L12.6499 15.3042L12.6499 18.689ZM18.7021 14.0042L18.7021 9.99609L16.3574 9.99609L16.3574 14.0042L18.7021 14.0042ZM15.0576 9.99609L8.94238 9.99609L8.94238 14.0042L15.0576 14.0042L15.0576 9.99609Z"/></svg>

<svg xmlns="http://www.w3.org/2000/svg" fill="none" viewBox="0 0 24 24" focusable="false"><path fill="#74767B" fill-rule="evenodd" d="M17 4c1.65 0 3 1.34 3 3v9.98c0 1.66-1.35 3-3 3H7c-1.66 0-3-1.34-3-3V7c0-1.66 1.34-3 3-3zm-4.36 1.3v3.39h6.06V7c0-.94-.76-1.7-1.7-1.7zm-1.29 3.39V5.3H7c-.94 0-1.71.76-1.71 1.7v1.69zm-6.06 1.3V14h2.35V9.99zm0 5.31v1.68c0 .94.77 1.7 1.71 1.7h4.35V15.3zm7.35 3.38H17c.94 0 1.7-.76 1.7-1.7V15.3h-6.06zM18.7 14V9.99h-2.35V14zm-3.65-4.01H8.94V14h6.11z"/></svg>
